X:1
T:Title
%%score { 1 | 2 }
L:1/8
Q:1/4=100
M:4/4
K:Eb
V:1 treble nm="Grand Piano"
V:2 bass 
V:1
 G3 E EEDE | [DF]4 [DF]2 z2 | [FA]3 [DF] FFEF | G6 z2 | [GB]3 G GGAB | [Ec]4 [Ec]2 z2 | %6
w: Mrs.~Joseph~F.~Knapp * * * * *||||||
 [Ee]3 [EB] [DB][DA][EG][DF] | E6 z2 | [DF]3 [DF] FFEF | G4 G2 z2 | =A3 A AABc | [DB]6 z2 | %12
w: ||||||
 e3 B BBAG | [CF]4 [CFA]4 | E3 E DEFD | E6 z2 |] %16
w: ||||
V:2
 [E,B,E]3 [E,G,] [E,G,][G,B,][F,A,B,][E,G,] | [B,,B,]4 [B,,B,]2 z2 | %2
 [B,,B,]3 [B,,B,] [B,D][A,B,D][G,B,][F,B,D] | [E,B,E]6 z2 | %4
 [E,B,]3 [E,B,E] [E,B,E][E,_DE][E,CE][E,G,E] | [A,,A,]4 [A,,A,]2 z2 | %6
 [B,,G,]3 [B,,G,] [B,,F,][B,,F,][B,,B,][B,,A,] | [E,G,]6 z2 | %8
 [B,,B,]3 [B,,B,] [B,D][A,B,D][G,B,][F,B,D] | [E,B,E]4 [E,B,E]2 z2 | %10
 [F,E]3 [F,E] [F,E][F,E][F,D][F,=A,E] | [B,,B,]6 z2 | %12
 [G,B,E]3 [G,B,E] [G,B,E][G,B,E][F,B,D][E,B,E] | A,,4 A,,4 | %14
 [B,,G,]3 [B,,G,B,] [B,,F,B,][B,,G,B,][B,,A,B,][B,,A,B,] | [E,G,B,]6 z2 |] %16

